!!!OTL: 546. Weihelied (der Landesvater).
!!!ODT: 1801
!!!ARE: Europa, Mitteleuropa, Deutschland
!!!SCT: B0546
!!!TXL: @@DE
!!!YEM: Copyright 1995, estate of Helmut Schaffrath.
**kern	**text
*ICvox	*
*Ivox	*
!! Mixed meters:  3/2; 4/4
*M3/2	*
*k[b-]	*
*F:	*
!LO:TX:a:t=Feierlich langsam.	!
{8ccL	Al-
8aJ	.
8b-L	-les
8gJ	.
=1	=1
2f	ſchwei-
2c	-ge!
4f	Je-
4g	-der
=2	=2
2a	nei-
2f}	-ge
{4a	ern-
4b-	-ſten
=4	=4
2cc	Tö-
2dd	-nen
4cc	nun
4b-	ſein
=5	=5
(<2b-	Ohr!
2a;)}	.
{8ccL	Al-
8aJ	.
8b-L	-les
8gJ	.
=7	=7
2f	ſchwei-
2c	-ge!
4f	Je-
4g	-der
=8	=8
2a	nei-
2f}	-ge
{4a	ern-
4b-	-ſten
=10	=10
2cc	Tö-
2dd	-nen
4cc	nun
4b-	ſein
=11	=11
*M2/2	*
(<2b-	Ohr!
2a;)}	.
=12	=12
{4.cc	Hört,
8a	ich
4f	fing'
4ff	das
=13	=13
4.dd	Lied
8cc	der
4b-	Lie-
4a}	-der!
=14	=14
{4.g	Hört
8a	es,
4b-	mei-
4g	-ne
=15	=15
4.cc	deut-
8b-	-ſchen
4a	Brü-
4g}	-der!
=16	=16
{2f	Hall'
2g	es
=17	=17
(<4a	wie-
4b-)	.
4cc	.
8ddL	-der,
8b-J	.
=18	=18
2a	fro-
2g	-her
=19	=19
2f	Chor!
2r}	.
=20	=20
{4.cc	Hört,
8a	ich
4f	fing'
4ff	das
=21	=21
4.dd	Lied
8cc	der
4b-	Lie-
4a}	-der!
=22	=22
{4.g	Hört
8a	es,
4b-	mei-
4g	-ne
=23	=23
4.cc	deut-
8b-	-ſchen
4a	Brü-
4g}	-der!
=24	=24
{2f	Hall'
2g	es
=25	=25
(<4a	wie-
4b-)	.
4cc	.
8ddL	-der,
8b-J	.
=26	=26
2a	fro-
2g	-her
=27	=27
2f	Chor!
2r}	.
==	==
!!!AGN: Studenten -, Burschenschafts - Lied, national
!!!GTL: Turnerlieder
!!!ONB: ESAC (Essen Associative Code) Database: BOEHME
!!!AMT: irregular
!!!AIN: vox
!!!EED: Helmut Schaffrath
!!!EEV: 1.0
!!!RDF**kern: < = below
!!Jeder Theil wird erſt von Einʒelnen geſungen, dann vom Chor wiederholt.
!!Alte Weiſe vor 1770. Ʒuerſt gedr. 1801.
!!@@COMMENT:"Dieſes bekannte Studentenlied, welches unter dem Namen Landesvater" bei allen ſeier-
!!lichen Commerſen geſungen wurde und gekürʒt und abgeändert noch jetʒt geſungen wird, iſt von
!!Auguſt Niemann 1781 gedichtet, als dieſer noch Student in Kiel war. Es ſteht in dem von
!!Niemann ohne ſeinen Namen herausgegebenen Akademiſchen Liederbuch" Deſſau u. Leipʒig 1782.
!!Jn der Buchhandlung der Gelehrten) S. 111-120. [...]"
!!@@END:
!!!Text: A. Niemann
!!!URL-scan: https://archive.org/details/BoehmeVtLieder1895/page/n433/mode/2up
!!!ENC: Anna Maria Matuszewska
!!!EEV: 2024/11/07
*-	*-
